images/raw_icons/category-excercise.svg

<?xml version="1.0" encoding="UTF-8"?>
<svg width="24px" height="24px" viewBox="0 0 24 24" version="1.1" xmlns="http://www.w3.org/2000/svg" xmlns:xlink="http://www.w3.org/1999/xlink">
    <title>Topic-Icons/31_a</title>
    <g id="Topic-Icons/31_a" stroke="none" stroke-width="1" fill="none" fill-rule="evenodd">
        <g id="Group" transform="translate(1.5, 2.5)" fill="#FFFFFF">
            <path d="M10.2421027,8.94957262 C8.8651027,8.94957262 7.7501027,10.0645726 7.7501027,11.4415726 C7.7501027,12.8175726 8.8651027,13.9335726 10.2421027,13.9335726 C11.6181027,13.9335726 12.7341027,12.8175726 12.7341027,11.4415726 C12.7341027,10.0645726 11.6181027,8.94957262 10.2421027,8.94957262 M10.2421027,9.94957262 C11.0641027,9.94957262 11.7341027,10.6185726 11.7341027,11.4415726 C11.7341027,12.2635726 11.0641027,12.9335726 10.2421027,12.9335726 C9.4191027,12.9335726 8.7501027,12.2635726 8.7501027,11.4415726 C8.7501027,10.6185726 9.4191027,9.94957262 10.2421027,9.94957262" id="Fill-6"></path>
            <path d="M6.7480027,18.9641726 L5.7480027,18.9641726 C5.7490027,16.4861726 7.7660027,14.4711726 10.2420027,14.4711726 C12.7210027,14.4711726 14.7360027,16.4861726 14.7360027,18.9641726 L13.7360027,18.9641726 C13.7360027,17.0381726 12.1690027,15.4711726 10.2420027,15.4711726 C8.3160027,15.4711726 6.7490027,17.0381726 6.7480027,18.9641726" id="Fill-8"></path>
            <path d="M-4.04121181e-13,15.1960726 C0.00100236936,12.7180726 2.01800237,10.7030726 4.49400237,10.7030726 C4.5,10.9495726 4.5,11.4495726 4.49400237,11.7030726 C2.56800237,11.7030726 1.00100237,13.2700726 1,15.1960726" id="Combined-Shape"></path>
            <path d="M16.424388,15.1960726 C16.4253904,12.7180726 18.4423904,10.7030726 20.9183904,10.7030726 C20.924388,10.9495726 20.924388,11.4495726 20.9183904,11.7030726 C18.9923904,11.7030726 17.4253904,13.2700726 17.424388,15.1960726" id="Combined-Shape-Copy" transform="translate(18.6736, 12.9496) scale(-1, 1) translate(-18.6736, -12.9496)"></path>
            <path d="M4.7412503,4.984 C3.3652503,4.984 2.2492503,6.1 2.2492503,7.476 C2.2492503,8.853 3.3652503,9.968 4.7412503,9.968 C6.1182503,9.968 7.2332503,8.853 7.2332503,7.476 C7.2332503,6.1 6.1182503,4.984 4.7412503,4.984 M4.7412503,5.984 C5.5642503,5.984 6.2332503,6.654 6.2332503,7.476 C6.2332503,8.299 5.5642503,8.968 4.7412503,8.968 C3.9192503,8.968 3.2492503,8.299 3.2492503,7.476 C3.2492503,6.654 3.9192503,5.984 4.7412503,5.984" id="Fill-1"></path>
            <path d="M15.7429551,4.984 C14.3669551,4.984 13.2509551,6.1 13.2509551,7.476 C13.2509551,8.853 14.3669551,9.968 15.7429551,9.968 C17.1199551,9.968 18.2349551,8.853 18.2349551,7.476 C18.2349551,6.1 17.1199551,4.984 15.7429551,4.984 M15.7429551,5.984 C16.5659551,5.984 17.2349551,6.654 17.2349551,7.476 C17.2349551,8.299 16.5659551,8.968 15.7429551,8.968 C14.9209551,8.968 14.2509551,8.299 14.2509551,7.476 C14.2509551,6.654 14.9209551,5.984 15.7429551,5.984" id="Fill-1-Copy"></path>
            <path d="M10.2421027,-3.8191672e-14 C8.8651027,-3.8191672e-14 7.7501027,1.115 7.7501027,2.492 C7.7501027,3.868 8.8651027,4.984 10.2421027,4.984 C11.6181027,4.984 12.7341027,3.868 12.7341027,2.492 C12.7341027,1.115 11.6181027,-3.8191672e-14 10.2421027,-3.8191672e-14 M10.2421027,1 C11.0641027,1 11.7341027,1.669 11.7341027,2.492 C11.7341027,3.314 11.0641027,3.984 10.2421027,3.984 C9.4191027,3.984 8.7501027,3.314 8.7501027,2.492 C8.7501027,1.669 9.4191027,1 10.2421027,1" id="Fill-6"></path>
        </g>
    </g>
</svg>

<?xml version="1.0" encoding="utf-8"?>
<!-- Generator: Adobe Illustrator 27.5.0, SVG Export Plug-In . SVG Version: 6.00 Build 0)  -->
<svg version="1.1" id="Ebene_1" xmlns="http://www.w3.org/2000/svg" xmlns:xlink="http://www.w3.org/1999/xlink" x="0px" y="0px"
	 viewBox="0 0 24 24" style="enable-background:new 0 0 24 24;" xml:space="preserve">
<style type="text/css">
	.st0{fill-rule:evenodd;clip-rule:evenodd;}
</style>
<g id="Topic-Icons_x2F_31_x5F_a">
	<g id="Group" transform="translate(1.5, 2.5)">
		<path id="Fill-6" class="st0" d="M10.2,8.9c-1.4,0-2.5,1.1-2.5,2.5c0,1.4,1.1,2.5,2.5,2.5c1.4,0,2.5-1.1,2.5-2.5
			C12.7,10.1,11.6,8.9,10.2,8.9 M10.2,9.9c0.8,0,1.5,0.7,1.5,1.5c0,0.8-0.7,1.5-1.5,1.5c-0.8,0-1.5-0.7-1.5-1.5
			C8.8,10.6,9.4,9.9,10.2,9.9"/>
		<path id="Fill-8" class="st0" d="M6.7,19h-1c0-2.5,2-4.5,4.5-4.5c2.5,0,4.5,2,4.5,4.5h-1c0-1.9-1.6-3.5-3.5-3.5
			C8.3,15.5,6.7,17,6.7,19"/>
		<path id="Combined-Shape" class="st0" d="M0,15.2c0-2.5,2-4.5,4.5-4.5c0,0.2,0,0.7,0,1c-1.9,0-3.5,1.6-3.5,3.5"/>
		<path id="Combined-Shape-Copy" class="st0" d="M20.9,15.2c0-2.5-2-4.5-4.5-4.5c0,0.2,0,0.7,0,1c1.9,0,3.5,1.6,3.5,3.5"/>
		<path id="Fill-1" class="st0" d="M4.7,5C3.4,5,2.2,6.1,2.2,7.5c0,1.4,1.1,2.5,2.5,2.5c1.4,0,2.5-1.1,2.5-2.5C7.2,6.1,6.1,5,4.7,5
			 M4.7,6c0.8,0,1.5,0.7,1.5,1.5C6.2,8.3,5.6,9,4.7,9C3.9,9,3.2,8.3,3.2,7.5C3.2,6.7,3.9,6,4.7,6"/>
		<path id="Fill-1-Copy" class="st0" d="M15.7,5c-1.4,0-2.5,1.1-2.5,2.5c0,1.4,1.1,2.5,2.5,2.5c1.4,0,2.5-1.1,2.5-2.5
			C18.2,6.1,17.1,5,15.7,5 M15.7,6c0.8,0,1.5,0.7,1.5,1.5c0,0.8-0.7,1.5-1.5,1.5c-0.8,0-1.5-0.7-1.5-1.5C14.3,6.7,14.9,6,15.7,6"/>
		<path id="Fill-6_00000041262274911463416770000014556663243351301022_" class="st0" d="M10.2,0C8.9,0,7.8,1.1,7.8,2.5
			C7.8,3.9,8.9,5,10.2,5c1.4,0,2.5-1.1,2.5-2.5C12.7,1.1,11.6,0,10.2,0 M10.2,1c0.8,0,1.5,0.7,1.5,1.5c0,0.8-0.7,1.5-1.5,1.5
			C9.4,4,8.8,3.3,8.8,2.5C8.8,1.7,9.4,1,10.2,1"/>
	</g>
</g>
</svg>
